X:1
T:Title
%%score { 1 | ( 2 3 ) }
L:1/8
Q:1/4=100
M:4/4
K:Eb
V:1 treble nm="Grand Piano"
V:2 bass 
V:3 bass 
V:1
 [B,G]3 G _G=GAG | [B,G]4 [G,E]2 z2 | [A,F]3 =E FF_EF | [B,G]6 z2 | [B,G]3 G _G=GAG | %5
w: J.~H.~Hall * * * * *|||||
 [B,G]4 [G,E]2 z2 | [A,F]3 =E FAGF | [G,E]6 z2 | [GB]3 [GB] [_G=A][=GB][Ac][GB] | [Ge]4 [GB]2 z2 | %10
w: |||||
 c3 =B c[ce][Bd][Ac] | [GB]6 z2 | G3 G _G=GAG | [GB]4 [EG]2 z2 | %14
w: ||||
 [DF]3 [_D=E] [=DF][CFA][B,_EG][A,DF] | [G,E]6 z2 |] %16
w: ||
V:2
 z2 z B, =A,B,CB, | [E,,E,]6 z2 | z2 z G, A,A,G,A, | [E,,E,]6 z2 | z2 z B, =A,B,CB, | [E,,E,]6 z2 | %6
 z2 z G, A,CB,A, | [E,,E,]6 z2 | [E,E]3 [E,E] [E,E][E,E][E,E][E,E] | [E,B,]4 [E,E]2 z2 | %10
 [A,EA]3 [A,EG] [A,EA][A,E][A,E][K:bass][A,E] | [E,E]6 z2 | %12
 [E,B,E]3 [E,B,E] [E,=A,E][E,B,E][E,CE][E,B,E] | [E,E]4 [E,B,]2 z2 | %14
 [B,,B,]3 [B,,B,] [B,,B,]B,,B,,B,, | E,6 z2 |] %16
V:3
 [E,,E,]8 | x8 | [B,,,B,,]8 | x8 | [E,,E,]8 | x8 | [B,,,B,,]8 | x8 | x8 | x8 | x7[K:bass] x | x8 | %12
 x8 | x8 | x8 | x8 |] %16

